svg/furkot/freepik/off-road.svg

<svg viewBox="0 0 512 512" xmlns="http://www.w3.org/2000/svg"><path d="m486.273 186.522h25.727v50.31h-25.727zm-327.521-60.565h50.3v25.727h-50.3zm329.915 316.253-26.442-16.018 23.757-118.128-44.465-10.254 1.229-5.33 35.345 8.153 15.772-68.407-26.779-6.157 16.711-72.509c6.944-30.24 4.25-47.062-25.989-54.005l-188.104-43.368c-30.231-6.971-38.947 2.413-45.937 32.624l-17.762 77.069-26.778-6.155-15.781 68.382 44.445 10.263-11.55 50.151 19.122 21.223 189.257 43.629 23.053-11.522-12.58 54.617-53.286-33.666s-78.672-42.184-100.619-20.237l-38.919 38.928-39.051-39.051 22.791-98.902-52.43-12.094-17.359 75.268c-18.55-4.682-25.17-5.773-39.675 8.724l-22.171 22.638c-10.752 10.752-59.536 86.728-74.472 118.135l512 1.752c-6.034-6.445-15.322-7.704-23.333-15.753zm-266.149-230.045c-2.873 12.376-15.21 20.116-27.595 17.254-12.376-2.861-20.108-15.189-17.256-27.575 2.881-12.376 15.21-20.107 27.576-17.256 12.404 2.864 20.135 15.21 17.275 27.577zm253.461 55.968c-2.861 12.374-15.208 20.116-27.584 17.263-12.375-2.871-20.116-15.2-17.245-27.585 2.851-12.376 15.189-20.116 27.565-17.255 12.404 2.853 20.108 15.2 17.264 27.577zm-100.938 21.24-114.019-26.27 13.146-57.018 114 26.289zm-133.778-138.506 16.129-69.9 202.957 46.773-16.139 69.918z"/></svg>

<svg viewBox="0 0 512 512" xmlns="http://www.w3.org/2000/svg"><path d="M 486.273 186.522 L 512 186.522 L 512 236.832 L 486.273 236.832 L 486.273 186.522 Z M 158.752 125.957 L 209.052 125.957 L 209.052 151.684 L 158.752 151.684 L 158.752 125.957 Z M 488.667 442.21 L 462.225 426.192 L 485.982 308.064 L 441.517 297.81 L 442.746 292.48 L 478.091 300.633 L 493.863 232.226 L 467.084 226.069 L 483.795 153.56 C 490.739 123.32 488.045 106.498 457.806 99.555 L 269.702 56.187 C 239.471 49.216 230.755 58.6 223.765 88.811 L 206.003 165.88 L 179.225 159.725 L 163.444 228.107 L 207.889 238.37 L 196.339 288.521 L 215.461 309.744 L 404.718 353.373 L 427.771 341.851 L 415.191 396.468 L 361.905 362.802 C 361.905 362.802 283.233 320.618 261.286 342.565 L 222.367 381.493 L 183.316 342.442 L 206.107 243.54 L 153.677 231.446 L 136.318 306.714 C 117.768 302.032 111.148 300.941 96.643 315.438 L 74.472 338.076 C 63.72 348.828 14.936 424.804 0 456.211 L 512 457.963 C 505.966 451.518 496.678 450.259 488.667 442.21 Z M 222.518 212.165 C 219.645 224.541 207.308 232.281 194.923 229.419 C 182.547 226.558 174.815 214.23 177.667 201.844 C 180.548 189.468 192.877 181.737 205.243 184.588 C 217.647 187.452 225.378 199.798 222.518 212.165 Z M 475.979 268.133 C 473.118 280.507 460.771 288.249 448.395 285.396 C 436.02 282.525 428.279 270.196 431.15 257.811 C 434.001 245.435 446.339 237.695 458.715 240.556 C 471.119 243.409 478.823 255.756 475.979 268.133 Z M 375.041 289.373 L 261.022 263.103 L 274.168 206.085 L 388.168 232.374 L 375.041 289.373 Z M 241.263 150.867 L 257.392 80.967 L 460.349 127.74 L 444.21 197.658 L 241.263 150.867 Z"/></svg>
